themes/etch/static/img/funders/tgi.svg

<?xml version="1.0" encoding="UTF-8"?>
<svg width="322px" height="215px" viewBox="0 0 322 215" version="1.1" xmlns="http://www.w3.org/2000/svg" xmlns:xlink="http://www.w3.org/1999/xlink">
    <title>Slice</title>
    <g id="Page-1" stroke="none" stroke-width="1" fill="none" fill-rule="evenodd">
        <g id="Group" fill="#1A1919">
            <path d="M276.261364,64.9488636 C252.151589,45.3222131 223.034005,33.8465909 191.673757,33.8465909 C189.67154,33.8465909 187.682177,33.9080742 185.698864,34.000299 C214.773349,35.3581789 241.728418,46.5841192 264.297211,64.9488636 L276.261364,64.9488636 Z" id="Fill-1"></path>
            <path d="M287.436284,64.0340909 L322,64.0340909 C293.360329,33.8642635 255.762935,15.5511364 214.579736,15.5511364 C183.552043,15.5511364 154.558619,25.945356 129.897727,43.9709166 C149.473323,33.9845185 171.021338,28.4512921 193.652486,28.4512921 C228.584287,28.4512921 260.940251,41.6240757 287.436284,64.0340909" id="Fill-3"></path>
            <path d="M39.2546313,214.971591 C40.9741039,101.174621 118.017933,9.56053623 212.821855,9.56053623 C238.023699,9.56053623 261.968165,16.0426898 283.579545,27.6866139 C256.397406,10.0282817 225.299904,0 192.257536,0 C90.6503521,0 7.40556704,94.7595038 0,214.971591 L39.2546313,214.971591 Z" id="Fill-5"></path>
            <polygon id="Fill-7" points="130.37819 213.142045 146.629729 213.142045 146.629729 105.164428 183.869318 105.164428 183.869318 91.4772727 93.3068182 91.4772727 93.3068182 105.164428 130.37819 105.164428"></polygon>
            <polygon id="Fill-9" points="305.534091 213.142045 322 213.142045 322 91.4772727 305.534091 91.4772727"></polygon>
            <path d="M256.274615,159.214963 L256.274615,175.049344 L272.21439,175.049344 L272.21439,195.769758 C266.788791,198.294221 256.783171,200.147596 248.134706,200.147596 C220.327378,200.147596 200.318404,179.935377 200.318404,152.309659 C200.318404,124.852089 219.647289,104.639119 248.643261,104.639119 C264.583036,104.639119 277.301456,109.6933 285.270587,113.736344 L285.270587,98.2397594 C281.199877,96.0478379 267.466613,89.6477273 248.983306,89.6477273 C211.510402,89.6477273 183.869318,116.263059 183.869318,152.309659 C183.869318,188.35701 211.170357,214.971591 248.134706,214.971591 C262.719592,214.971591 278.150811,211.095943 288.153409,205.706969 L288.153409,175.049344 L288.153409,159.214963 L272.21439,159.214963 L256.274615,159.214963 Z" id="Fill-11"></path>
        </g>
    </g>
</svg>

<svg xmlns="http://www.w3.org/2000/svg" width="322" height="215" viewBox="0 0 322 215"><title>Slice</title><g fill="#1a1919" fill-rule="evenodd"><path d="M276.261 64.949c-24.11-19.627-53.227-31.102-84.587-31.102-2.002 0-3.992.061-5.975.153 29.074 1.358 56.03 12.584 78.598 30.949z"/><path d="M287.436 64.034H322c-28.64-30.17-66.237-48.483-107.42-48.483-31.028 0-60.021 10.394-84.682 28.42 19.575-9.986 41.123-15.52 63.754-15.52 34.932 0 67.288 13.173 93.784 35.583"/><path d="M39.255 214.972C40.975 101.175 118.018 9.56 212.822 9.56c25.202 0 49.146 6.482 70.758 18.126C256.397 10.028 225.3 0 192.258 0 90.65 0 7.406 94.76 0 214.972z"/><path d="M130.378 213.142h16.252V105.164h37.24V91.477H93.306v13.687h37.071zM305.534 213.142H322V91.477h-16.466zM256.275 159.215v15.834h15.94v20.72c-5.426 2.525-15.432 4.379-24.08 4.379-27.808 0-47.817-20.213-47.817-47.838 0-27.458 19.33-47.67 48.325-47.67 15.94 0 28.658 5.053 36.628 9.096V98.24c-4.071-2.192-17.804-8.592-36.288-8.592-37.473 0-65.114 26.615-65.114 62.662s27.301 62.662 64.266 62.662c14.585 0 30.016-3.876 40.018-9.265v-46.492h-31.879"/></g></svg>
